X:40
%%etbk:tnset id:14,pos:1,rep:3x,ant:
%%etbk:wsite http://www.thesession.org/tunes/display/2881
%%etbk:pldat 2016-07-12T16:15,2016-03-17T18:47,2015-10-12T18:21,2014-12-28T15:00,2014-05-05T19:26,2014-03-09T15:06,2014-02-14T16:24,2013-11-26T15:50,2013-11-21T18:51,2013-11-16T14:32,2013-11-06T16:41,2013-10-08T16:48,2013-10-05T16:26,2013-10-04T17:59
T: Devanny's Goat
Z: Piano Box Version by Martin Fleischmann
H: Created 2013-02-19 /  Last Modified 2013-02-19
M: 4/4
L: 1/8
R: reel
K: Dmaj
!4!A!3!A!4!A!5!B !4!A!2!F!1!A!2!B | !3!d2 !5!fe !3!d!2!B!1!A!2!F | !1!D!2!F!4!AF !5!B!2!F!4!A!3!F | !2!E3E EGFE |
!1!DFA!5!B !4!A!2!F!1!AB | !3!d2!5!fe !3!dB!1!A!5!f | !4!e2!3!d!2!B !1!A2!2!FF | !4!AF!1!EA !2!F!1!D D2 :|
|: !3!f2!4!a!5!b !4!a!3!f!1!d!3!f | !5!aafd !2!e!1!d!2!B!1!d | !1!A!2!B!1!d!2!e !3!f!1!d!2!d!1!d | !2!ed!3!fd !2!e!1!d!2!B!1!d |
!1!AB!1!de !3!f!1!d !3!(3d!2!d!1!d | !2!edfd !2!ed!2!B!4!d | !1!A2 !4!dB !1!A2!2!FF | !4!AF!1!EA !2!F!1!D D2 :|


